!!!COM: Bach, Johann Sebastian
!!!OPR: Joh. Seb. Bachs vierstimmige Choralgesänge
!!!XEN: Four-part Chorales
!!!OTL: 88. Heut' ist, o Mensch, ein grosser Trauertag
!!!SCT: BWV 341
!!!SCA: Thematisch-systematisches Verzeichnis der musikalischen Werke Johann Sebastian Bach: Bach-Werke-Verzeichnis (Schmieder)
!!!YOR: Bach Gesellschaft Edition xxxix
!!!ENC: Steven Rasmussen
!!!CDT: 1685/3//-1750/7/28/
!!!OCY: Deutschland
!!!YEC: Copyright (c) 1994, 2000 Center for Computer Assisted Research in the Humanities
!!!YEM: Rights to all derivative editions reserved
!!!YEN: United States of America
**kern	**silbe	**kern	**kern	**kern
*I:[SOPRANO]	*I:[SOPRANO]	*I:[ALTO]	*I:[TENORE]	*I:[BASSO]
*clefG2	*	*clefG2	*clefGv2	*clefF4
*k[b-]	*	*k[b-]	*k[b-]	*k[b-]
*d:	*	*d:	*d:	*d:
*M4/4	*	*M4/4	*M4/4	*M4/4
4d	Heut'	4B-	4G	4GG
=1	=1	=1	=1	=1
4f	ist,	(8A	8FL	4D
.	.	4f)	8AJ	.
4g	o	.	8dL	8BB-L
.	.	8e	8cJ	8CJ
4a;	Mensch,	4f;	4c;	4F;
4b-	ein	8dL	4G	4G
.	.	8eJ	.	.
=2	=2	=2	=2	=2
4a	gro-	4f#	(16ALL	4D
.	.	.	16B-JJ	.
.	.	.	4c)	.
4g	-sser	4g	.	4E
.	.	.	16B-LL	.
.	.	.	16AJJ	.
4cc	Trau-	8gL	8GL	8EL
.	.	8aJ	8dJ	8F#J
4b-	-er-	8aL	4d	4G
.	.	8gJ	.	.
=3	=3	=3	=3	=3
2a;	-tag,	2f#;	2d;	2D;
4r	.	4r	4r	4r
4dd	an	4b-	4f	4BB-
=4	=4	=4	=4	=4
4cc	wel-	8b-L	8.fL	4F
.	.	8aJ	.	.
.	.	.	16e-Jk	.
4b-	-chem	8aL	4d	4G
.	.	8gJ	.	.
4a	un-	8gL	8.dL	4D
.	.	8fJ	.	.
.	.	.	16cJk	.
4g	-ser	8fL	4B-	4E-
.	.	8e-J	.	.
=5	=5	=5	=5	=5
4f	Hei-	8e-L	4B-	8BB-L
.	.	8dJ	.	8AAJ
4g	-land	8e-L	4B-	4GG
.	.	8dJ	.	.
4f	gro-	8cL	4F	8AAL
.	.	8B-J	.	8GGJ
4e-	-sse	8cL	4F	8AAL
.	.	8AJ	.	8FFJ
=6	=6	=6	=6	=6
2d;	Plag'	2B-;	2F;	2BB-;
4r	.	4r	4r	4r
4a	er-	4c	4F	8FL
.	.	.	.	8E-J
=7	=7	=7	=7	=7
4b-	-lit-	8dL	4f	4D
.	.	8fJ	.	.
4cc	-ten	8gL	4e-	4C
.	.	8aJ	.	.
4dd;	hat,	4b-;	4f;	4BB-;
4dd	und	8gL	4d	4BBn
.	.	8fJ	.	.
=8	=8	=8	=8	=8
4cc	tot	8e-L	4G	8CL
.	.	8fJ	.	8DJ
8gL	dar-	4g	4c	4E-
8aJ	.	.	.	.
4b-	-nie-	4.g	4d	8BB-L
.	.	.	.	8CJ
4a	-der	.	8dL	4D
.	.	8f#	8cJ	.
=9	=9	=9	=9	=9
2.g;	lag.	2.d;	2.Bn;	2.GG;
==|!	==|!	==|!	==|!	==|!
*-	*-	*-	*-	*-
!!!RWG: Key is interpreted using the Humdrum key tool.
!!!END: 1994/06/10
!!!EMD: Converted from MuseData to Humdrum Dec 19, 2000, by Andreas Kornstaedt using muse2kern.
!!!EED: Craig Stuart Sapp
!!!EEV: 2024/03/31
!!!ONB: Some non-unicode characters
